!!!!SEGMENT: pl-sa--178-a-v-8--001_anonim--msza-kyrie.krn
!!!cenid: 17xx:1644
!!!COM: Anonim
!!!COM-rismID:
!!!CDT:
!!!CNT:
!!!OPR: Msza
!!!OTL: Kyrie
!!!OMV: 001
!!!PDT:
!!!AGN: Sacred; Mass
!!!SMS-siglum: PL-SA
!!!SMS-shelfmark: 178/A V 8
!!!SMS-shelfwork: 001-001 M
!!!SMS-variant:
!!!SMS-altvar:
!!!NIFC-rismSourceID: 1001035884
!!!NIFC-islandoraID:
!!!URL-pdf-islandora:
!!!URL-scan: https://bc.bdsandomierz.pl/dlibra/publication/1513/edition/1481/content @EN{Scan on Cyfrowa Biblioteka Diecezjalna w Sandomierzu} @PL{Skany w portalu Cyfrowa Biblioteka Diecezjalna w Sandomierzu}
!!!ONB-nifc: UWAGA: części Mszy: 1. Kyrie, 2. Gloria, 3. Patrem, 4. Sanctus, 5. Agnus Dei
!!!AIN: 1 bass 1 organ 1 soprn 2 violn
!!!key: G
**kern	**fba	**kern	**dynam	**kern	**dynam	**kern	**text	**kern	**text
*part5	*part5	*part4	*part4	*part3	*part3	*part2	*part2	*part1	*part1
*staff5	*	*staff4	*	*staff3	*	*staff2	*staff2	*staff1	*staff1
*I"Organo.	*	*I"Violino 2do.	*	*I"Violino Primo.	*	*I"Baſso	*	*I"Canto.	*
*I'org	*	*I'vl II	*	*I'vl I	*	*I'B	*	*I'S	*
*ICklav	*	*ICstr	*	*ICstr	*	*ICvox	*	*ICvox	*
*Iorgan	*	*Ivioln	*	*Ivioln	*	*Ibass	*	*Isoprn	*
*clefF4	*	*clefG2	*	*clefG2	*	*clefF4	*	*clefC1	*
*k[f#]	*	*k[f#]	*	*k[f#]	*	*k[f#]	*	*k[f#]	*
*G:	*	*G:	*	*G:	*	*G:	*	*G:	*
*M4/4	*	*M4/4	*	*M4/4	*	*M4/4	*	*M4/4	*
*met(c)	*	*met(c)	*	*met(c)	*	*met(c)	*	*met(c)	*
=1	=1	=1	=1	=1	=1	=1	=1	=1	=1
!!LO:TX:t=P:problem:all\right or left	!	!	!	!	!	!	!	!
!LO:TX:t=P:problem=oznaczenie metryczne C z ogonkiem	!	!LO:TX:t=P:problem=oznaczenie metryczne C z ogonkiem	!	!	!	!LO:TX:t=P:problem=oznaczenie metryczne C z ogonkiem	!	!LO:TX:t=P:problem=oznaczenie metryczne C z ogonkiem	!
!LO:TX:a:B:t=adagio	!	!LO:TX:a:B:t=adagio	!	!LO:TX:a:B:t=adagio	!	!LO:TX:a:B:t=adagio	!	!LO:TX:a:B:t=adagio	!
4.G\	.	4.G/ 4.d 4.b 4.gg	.	4.gg\	.	4.G\	Ky-	4.dd\	Kẏ-
8G\	.	8G/ 8d 8b 8gg	.	8gg\	.	8G\	-ri-	8dd\	-ri-
!	!	!	!	!	!	!	!	!	!
2G;\	.	2G;/ 2d 2b 2gg	.	2gg;\	.	2G;\	-e	2dd;\	-e
=2	=2	=2	=2	=2	=2	=2	=2	=2	=2
[1G	.	8g/L	.	8g/L	.	8B\	Ky-	8dd\	Kẏ-
.	.	8g/	.	8g/	.	8c\	-ri-	8ee\	-ri-
.	.	8g/	.	8g/	.	8c\	-e	8ee\	-e
.	.	8g/J	.	8g/J	.	8B\	e-	8dd\	e-
.	.	8g/L	.	8g/L	.	8B\L	-lei-	8dd\L	-lei-
.	.	8g/	.	8g/	.	8A\J	.	8cc\J	.
.	.	8g/	.	8g/	.	4A\	-son	4cc\	-son
.	.	8g/J	.	8g/J	.	.	.	.	.
=3	=3	=3	=3	=3	=3	=3	=3	=3	=3
*	*	*	*	*	*	*	*	*	*ij
2G\]	.	8g/L	.	8g/L	.	8G\	Ky-	8b\	Kẏ-
.	.	8g/	.	8g/	.	8A\	-ri-	8cc\	-ri-
.	.	8g/	.	8g/	.	8A\	-e	8cc\	-e
!	!	!	!	!LO:TX:b:t=d	!	!	!	!	!
.	.	8g/J	.	8g/J	.	8G\	e-	8b\	e-
!LO:TX:t=P:problem=mixed beam	!	!	!	!	!	!	!	!	!
(>8D\L 8d	.	8d/L	.	8d/L	.	8G\L	-lei-	8b\L	-lei-
8DD/J)	3	8d/	.	8d/	.	8F#\J	.	8a\J	.
4GG/	.	8g/	.	8g/	.	4G\	-son	4b\	-son
.	.	8g/J	.	8g/J	.	.	.	.	.
*	*	*	*	*	*	*	*	*	*Xij
=4	=4	=4	=4	=4	=4	=4	=4	=4	=4
4.G\	.	4.G/ 4.d 4.b 4.gg	.	4.gg\	.	4.G\	Ky-	4.dd\	Ky-
8G\	.	8G/ 8d 8b 8gg	.	8gg\	.	8G\	-ri-	8dd\	-ri-
2G\	.	2G/ 2d 2b 2gg	.	2gg\	.	2G\	-e	2dd\	-e
!	!	!	!	!	!	!	!	!LO:LB:g=original	!
=5	=5	=5	=5	=5	=5	=5	=5	=5	=5
!	!	!	!	!	!	!	!	!	!
4A\	7	4cc\	.	8gg\L	.	4A\	e-	4cc\	e-
.	.	.	.	16ff#\L	.	.	.	.	.
.	.	.	.	16ee\JJ	.	.	.	.	.
4D\	7	4a\	.	4ff#\	.	4D\	-lei-	4cc\	-lei-
!	!	!	!	!LO:TX:a:t=5	!	!	!	!	!
2G\	5	2G/ 2d 2b 2gg	.	2gg\	.	2G\	-son	2dd\	-son
!LO:LB:g=original	!	!LO:LB:g=original	!	!	!LO:LB:g=original	!	!LO:LB:g=original	!	!
=6||	=6||	=6||	=6||	=6||	=6||	=6||	=6||	=6||	=6||
*M2/4	*	*M2/4	*	*M2/4	*	*M2/4	*	*M2/4	*
!LO:TX:a:B:t=allo.	!	!LO:TX:b:B:t=allo	!	!LO:TX:a:B:t=allo	!	!LO:TX:a:B:t=allo	!	!LO:TX:a:B:t=allo	!
4G\	.	4G/ 4d 4b 4gg	.	4G/ 4d 4b 4gg	.	4G\	Ky-	4dd\	Ky-
4G\	.	4G/ 4d 4b 4gg	.	4G/ 4d 4b 4gg	.	4B\	-ri-	4dd\	-ri-
=7	=7	=7	=7	=7	=7	=7	=7	=7	=7
!	!	!	!	!	!	!	!	!	!
8G`\L	.	8gg\L	.	8d/L 8b 8gg	.	4G\	-e	4dd\	-e
!	!	!	!	!	!	!	!	!	!
8BB`\	.	8b\J	.	8B`/	.	.	.	.	.
!	!	!	!	!	!	!	!	!	!
8C`\	.	8c/L	.	8c`/	.	4r	.	4r	.
!	!	!	!	!	!	!	!	!	!
8D`\J	.	8d/J	.	8d`/J	.	.	.	.	.
=8	=8	=8	=8	=8	=8	=8	=8	=8	=8
*	*	*	*	*	*	*	*ij	*	*ij
4G\	.	4G/ 4d 4b 4gg	.	4G/ 4d 4b 4gg	.	4G\	Ky-	4dd\	Ky-
4G\	.	4G/ 4d 4b 4gg	.	4G/ 4d 4b 4gg	.	4B\	-ri-	4dd\	-ri-
=9	=9	=9	=9	=9	=9	=9	=9	=9	=9
!	!	!	!	!	!	!	!	!	!
!	!	!	!	!	!	!	!	!	!
8G`\L	.	8G/L 8d 8b 8gg	.	8G/L 8d 8b 8gg	.	4G\	-e	4dd\	-e
*	*	*	*	*	*	*	*Xij	*	*Xij
8BB`/	.	8B/	.	8B`/	.	.	.	.	.
!	!	!	!	!	!	!	!	!	!
8C`/	.	8c/	.	8c`/	.	4r	.	4r	.
!	!	!	!	!	!	!	!	!	!
8D`/J	.	8d/J	.	8d`/J	.	.	.	.	.
=10	=10	=10	=10	=10	=10	=10	=10	=10	=10
2G\	.	8G/L 8d 8b 8gg	.	8G/L 8d 8b 8gg	.	2r	.	2r	.
.	.	8G/ 8d 8b 8gg	.	8G/ 8d 8b 8gg	.	.	.	.	.
.	.	8G/ 8d 8b 8gg	.	8G/ 8d 8b 8gg	.	.	.	.	.
.	.	8G/J 8d 8b 8gg	.	8G/J 8d 8b 8gg	.	.	.	.	.
=11	=11	=11	=11	=11	=11	=11	=11	=11	=11
!	!	!	!	!	!LO:DY:a:t=Po.	!	!	!	!
2GG/	.	4g/	.	4g/	p	4B\	e-	(4dd\	e-
.	.	4cc\	.	4ee\	.	4c\	.	4ee\)	.
=12	=12	=12	=12	=12	=12	=12	=12	=12	=12
!	!	!	!	!	!	!	!	!	!
2GG/	.	8cc\L	.	8ee\L	.	4c\	-lei-	8ee\L	-lei-
.	.	8f#/J	.	8a\J	.	.	.	8dd\J	.
.	.	4b\	.	[4dd\	.	8B\	-son	8dd\	-son
.	.	.	.	.	.	8B\	e-	8dd\	e-
=13	=13	=13	=13	=13	=13	=13	=13	=13	=13
2GG/	.	8b/L	.	8dd\L]	.	4B\	-lei-	4dd\	-lei-
.	.	8g/J	.	8g\J	.	.	.	.	.
.	.	4a/	.	[4cc\	.	8A\	-son	8cc\	-son
.	.	.	.	.	.	8A\	e-	8cc\	e-
!	!	!	!	!	!	!	!	!LO:LB:g=original	!
=14	=14	=14	=14	=14	=14	=14	=14	=14	=14
2G\	.	8a/L	.	8cc\L]	.	8A\L	-lei-	8cc\L	-lei-
.	.	8d/J	.	8a\J	.	8D\J	.	8a\J	.
.	.	4g/	.	4b\	.	4G\	-son	4b\	-son
=15	=15	=15	=15	=15	=15	=15	=15	=15	=15
!	!	!	!LO:DY:a:t=f.	!	!LO:DY:a	!	!	!	!
4G\	.	8b\L	f	8b\L	f	4G\	Ky-	8b\L	e-
.	.	16g\L	.	16g\L	.	.	.	16g\L	.
.	.	16a\JJ	.	16a\JJ	.	.	.	16a\JJ	.
4E\	6|	8g/L	.	8b\L	.	4E\	-ri-	8b\L	-lei-
.	.	8e/J	.	8cc#X\J	.	.	.	8cc#X\J	.
!	!	!LO:LB:g=original	!	!LO:LB:g=original	!	!LO:LB:g=original	!	!	!
=16	=16	=16	=16	=16	=16	=16	=16	=16	=16
2D\	.	(16dd\LL	.	(16dd\LL	.	2D\	-e	2dd\	-son
.	.	16cc#X\	.	16cc#X\	.	.	.	.	.
.	.	16ee\	.	16ee\	.	.	.	.	.
.	.	16dd\JJ)	.	16dd\JJ)	.	.	.	.	.
.	.	16dd\LL	.	16dd\LL	.	.	.	.	.
.	.	16cc#\	.	16cc#\	.	.	.	.	.
.	.	16ee\	.	16ee\	.	.	.	.	.
.	.	16dd\JJ	.	16dd\JJ	.	.	.	.	.
=17	=17	=17	=17	=17	=17	=17	=17	=17	=17
2D\	.	16dd\LL	.	16ddd\LL	.	2D\	e-	2dd\	e-
!	!	!LO:SIC:s=16cc#	!	!	!	!	!	!	!
.	.	16cc\	.	16ccc#X\	.	.	.	.	.
.	.	16ee\	.	16eee\	.	.	.	.	.
.	.	16dd\JJ	.	16ddd\JJ	.	.	.	.	.
.	.	16dd\LL	.	16dd\LL	.	.	.	.	.
!	!	!LO:SIC:s=16cc#	!	!	!	!	!	!	!
.	.	16cc\	.	16cc#X\	.	.	.	.	.
.	.	16ee\	.	16ee\	.	.	.	.	.
.	.	16dd\JJ	.	16dd\JJ	.	.	.	.	.
=18	=18	=18	=18	=18	=18	=18	=18	=18	=18
4D\	7	8a\L	.	8ccn\L	.	4.D\	-le-	4ccn\	-le-
.	.	8a\	.	8cc\	.	.	.	.	.
4D\	.	8dd\	.	8ff#\	.	.	.	4cc\	-i-
.	.	8dd\J	.	8ff#\J	.	8D\	-i-	.	.
!LO:LB:g=original	!	!	!	!	!	!	!	!	!
=19	=19	=19	=19	=19	=19	=19	=19	=19	=19
!LO:TX:t=P:problem=mixed beam	!	!	!	!	!	!	!	!	!
8GG/L	.	4G/ 4d 4b 4gg	.	4G/ 4d 4b 4gg	.	4G\	-son	4b\	-son
8G\	.	.	.	.	.	.	.	.	.
8D\	.	4r	.	4r	.	4r	.	4r	.
8BB\J	.	.	.	.	.	.	.	.	.
=20	=20	=20	=20	=20	=20	=20	=20	=20	=20
4G\	.	8d/L 8b 8gg	.	8G/L 8d 8b 8gg	.	8G\	Ky-	8dd\	Ky-
!	!	!	!	!LO:TX:t=P://git.nifc.pl/transkrypcje/popc2-transkrypcje/issues/100#issuecomment-1455]:problem=szlaczek pod nutami [przyjęto staccato zgodnie z http	!	!	!	!	!
.	.	8d/ 8b 8gg	.	8d'/ 8b 8gg	.	8B\	-ri-	8dd\	-ri-
4G\	.	8d/ 8b 8gg	.	8d'/ 8b 8gg	.	8G\	-e	8dd\	-e
.	.	8d/J 8b 8gg	.	8d'/J 8b 8gg	.	8G\	e-	8dd\	e-
=21	=21	=21	=21	=21	=21	=21	=21	=21	=21
!	!	!	!	!	!	!	!	!	!
8G`\L	.	8gg\L	.	8gg\L	.	8G\L	-lei-	8g\L	-lei-
!	!	!	!	!	!	!	!	!	!
16A`\L	.	16aa\L	.	16aa\L	.	16A\L	.	16a\L	.
!	!	!	!	!	!	!	!	!	!
16B`\JJ	.	16bb\JJ	.	16bb\JJ	.	16B\JJ	.	16b\JJ	.
!	!	!	!	!	!	!	!	!	!
8G`\L	.	8gg\L	.	8gg\L	.	8G\L	.	8g\L	.
!	!	!	!	!	!	!	!	!	!
16A`\L	.	16aa\L	.	16aa\L	.	16A\L	.	16a\L	.
!	!	!	!	!	!	!	!	!	!
16B`\JJ	.	16bb\JJ	.	16bb\JJ	.	16B\JJ	.	16b\JJ	.
=22	=22	=22	=22	=22	=22	=22	=22	=22	=22
!	!	!	!	!	!	!	!	!	!
8G`\L	.	8gg\L	.	8gg\L	.	8G\L	.	8g\L	.
!	!	!	!	!	!	!	!	!	!
16A`\L	.	16aa\L	.	16aa\L	.	16A\L	.	16a\L	.
!	!	!	!	!	!	!	!	!	!
16B`\JJ	.	16bb\JJ	.	16bb\JJ	.	16B\JJ	.	16b\JJ	.
!	!	!	!	!	!	!	!	!LO:LB:g=original	!
8G`\L	.	8gg\L	.	8gg\L	.	8G\L	.	8g\L	.
!	!	!	!	!	!	!	!	!	!
16A`\L	.	16aa\L	.	16aa\L	.	16A\L	.	16a\L	.
!	!	!	!	!	!	!	!	!	!
16B`\JJ	.	16bb\JJ	.	16bb\JJ	.	16B\JJ	.	16b\JJ	.
!	!	!	!	!LO:LB:g=original	!	!	!	!	!
=23	=23	=23	=23	=23	=23	=23	=23	=23	=23
8G\L	.	8G/L 8d 8b 8gg	.	8G/L 8d 8b 8gg	.	8G\	-son	8gg\	-son
!	!	!	!	!	!	!	!	!	!
8B\	.	8B/	.	8B`/	.	8B\	e-	8b\	e-
!	!	!	!	!	!	!	!	!	!
8c\	.	8c/	.	8c`/	.	8c\L	-lei-	8cc\L	-lei-
!	!	!	!	!	!	!	!	!	!
8d\J	.	8d/J	.	8d`/J	.	8d\J	.	8dd\J	.
!	!	!LO:LB:g=original	!	!	!	!	!	!	!
=24	=24	=24	=24	=24	=24	=24	=24	=24	=24
4G\	.	4G/ 4d 4b 4gg	.	4G/ 4d 4b 4gg	.	4G\	-son	4dd\	-son
!LO:TX:a:t=19	!	!LO:TX:a:t=19	!	!LO:TX:a:t=19	!	!	!	!	!
4r	.	4r	.	4r	.	4r	.	4r	.
!LO:LB:g=original	!	!	!	!	!	!LO:LB:g=original	!	!	!
=25||	=25||	=25||	=25||	=25||	=25||	=25||	=25||	=25||	=25||
*k[]	*	*k[]	*	*k[]	*	*yyk[]	*	*k[]	*
*M3/4	*	*M3/4	*	*M3/4	*	*yyM3/4	*	*M3/4	*
!LO:TX:b:t=Christe	!	!LO:TX:b:t=Christe	!	!	!	!	!	!	!
!LO:TX:t=P:problem=skreślona część Christe oraz fragment "Gloria"	!	!LO:TX:t=P:problem=przyjęto C-dur [zgodnie z vl I i kolejnymi systemami]	!	!LO:TX:a:B:t=andante	!	!	!	!LO:TX:t=P:problem=przyjęto C-dur [zgodnie z partiami instr.]	!
!LO:TX:a:B:t=andante	!	!LO:TX:a:B:t=adante.	!	!LO:TX:t=P:problem=przed metrum kasownik ffn	!	!LO:TX:a:B:t=Ta\ncet	!	!LO:TX:a:B:t=andan&colon;	!
4C/	.	2e/	.	2cc\	.	2.ryy	.	2.r	.
4E/	.	.	.	.	.	.	.	.	.
!	!	!	!	!	!	!	!	!	!
*	*	*Xtuplet	*	*Xtuplet	*	*	*	*	*
4C/	.	12e/L	.	12cc\L	.	.	.	.	.
.	.	12b/	.	12dd\	.	.	.	.	.
.	.	12cc/J	.	12ee\J	.	.	.	.	.
=26	=26	=26	=26	=26	=26	=26	=26	=26	=26
4G\	.	4b\	.	4dd\	.	2.ryy	.	2.r	.
*	*	*	*	*tuplet	*	*	*	*	*
4B\	.	12b`\L	.	12dd\L	.	.	.	.	.
!	!	!	!	!	!	!	!	!	!
.	.	12cc`\	.	12ee\	.	.	.	.	.
!	!	!	!	!	!	!	!	!	!
.	.	12dd`\J	.	12ff\J	.	.	.	.	.
*	*	*	*	*Xtuplet	*	*	*	*	*
4G\	.	12dd\L	.	12ff`\L	.	.	.	.	.
!	!	!	!	!	!	!	!	!	!
.	.	12cc\	.	12ee`\	.	.	.	.	.
!	!	!	!	!	!	!	!	!	!
.	.	12b\J	.	12dd`\J	.	.	.	.	.
!	!	!	!	!	!	!	!	!	!
=27	=27	=27	=27	=27	=27	=27	=27	=27	=27
4C/	.	4cc\	.	8ee\L	.	2.ryy	.	2.r	.
.	.	.	.	8cc\J	.	.	.	.	.
4F\	6	4a\	.	4a/	.	.	.	.	.
4D\	.	4d/	.	4b/	.	.	.	.	.
=28	=28	=28	=28	=28	=28	=28	=28	=28	=28
4C/	.	8.cc\L	.	8.cc\L	.	2.ryy	.	2.r	.
.	.	16g\Jk	.	16g\Jk	.	.	.	.	.
4GG/	.	8.e/L	.	8.e/L	.	.	.	.	.
.	.	16g/Jk	.	16g/Jk	.	.	.	.	.
8CC/	.	8c/	.	8c/	.	.	.	.	.
8r	.	8r	.	8r	.	.	.	.	.
=29	=29	=29	=29	=29	=29	=29	=29	=29	=29
!	!	!	!LO:DY:a:t=Po.	!	!LO:DY:a:t=Po.	!	!	!	!
4C/	.	2e/	p	2cc\	p	2.ryy	.	2.r	.
4E/	.	.	.	.	.	.	.	.	.
4C/	.	12e/L	.	12cc\L	.	.	.	.	.
.	.	12b\	.	12dd\	.	.	.	.	.
.	.	12cc\J	.	12ee\J	.	.	.	.	.
!	!	!	!	!LO:LB:g=original	!	!	!	!	!
=30	=30	=30	=30	=30	=30	=30	=30	=30	=30
4G\	.	4b\	.	4dd\	.	2.ryy	.	2.r	.
!	!	!	!	!	!	!	!	!	!
4B\	.	12b`\L	.	12dd`\L	.	.	.	.	.
!	!	!	!	!	!	!	!	!	!
.	.	12cc`\	.	12ee`\	.	.	.	.	.
!	!	!	!	!	!	!	!	!	!
.	.	12dd`\J	.	12ff`\J	.	.	.	.	.
!	!	!	!	!	!	!	!	!	!
4G\	.	12dd`\L	.	12ff\L	.	.	.	.	.
!	!	!	!	!	!	!	!	!	!
.	.	12cc`\	.	12ee\	.	.	.	.	.
!	!	!	!	!	!	!	!	!	!
.	.	12b`\J	.	12dd\J	.	.	.	.	.
!	!	!LO:LB:g=original	!	!	!	!	!	!	!
=31	=31	=31	=31	=31	=31	=31	=31	=31	=31
!	!	!LO:TX:t=P:problem=na początku systemu kasownik ffn	!	!	!	!	!	!	!
4C/	.	4cc\	.	8ee\L	.	2.ryy	.	2.r	.
.	.	.	.	8cc\J	.	.	.	.	.
4F\	6	4a\	.	4a/	.	.	.	.	.
4D\	.	4d/	.	4b/	.	.	.	.	.
=32	=32	=32	=32	=32	=32	=32	=32	=32	=32
4C/	.	8.cc\L	.	8.cc\L	.	2.ryy	.	2.r	.
.	.	16g\Jk	.	16g\Jk	.	.	.	.	.
4GG/	.	8.e/L	.	8.e/L	.	.	.	.	.
.	.	16g/Jk	.	16g/Jk	.	.	.	.	.
8CC/	.	8c/	.	8c/	.	.	.	.	.
8r	.	8r	.	8r	.	.	.	.	.
=33	=33	=33	=33	=33	=33	=33	=33	=33	=33
4C/	.	8ee\L	.	8ee\L	.	2.ryy	.	2.r	.
.	.	8gg\	.	8gg\	.	.	.	.	.
4C/	.	8ff#X\	.	8ff#X\	.	.	.	.	.
.	.	8gg\J	.	8gg\J	.	.	.	.	.
4GG/	.	4dd\	.	4dd\	.	.	.	.	.
!LO:LB:g=original	!	!	!	!	!	!	!	!	!
=34	=34	=34	=34	=34	=34	=34	=34	=34	=34
4C\	.	8ee\L	.	8ee\L	.	2.ryy	.	2.r	.
.	.	8gg\	.	8gg\	.	.	.	.	.
4C\	.	8ff#X\	.	8ff#X\	.	.	.	.	.
.	.	8gg\J	.	8gg\J	.	.	.	.	.
4G\	.	4dd\	.	4dd\	.	.	.	.	.
=35	=35	=35	=35	=35	=35	=35	=35	=35	=35
!	!	!	!	!	!	!	!	!	!
4F\	.	12ff`\L	.	12aa`\L	.	2.ryy	.	2.r	.
!	!	!	!	!	!	!	!	!	!
.	.	12ee`\	.	12gg`\	.	.	.	.	.
!	!	!	!	!	!	!	!	!	!
.	.	12dd`\J	.	12ff`\J	.	.	.	.	.
!	!	!	!	!	!	!	!	!	!
4F\	.	12dd`\L	.	12ff`\L	.	.	.	.	.
!	!	!	!	!	!	!	!	!	!
.	.	12cc`\	.	12ee`\	.	.	.	.	.
!	!	!	!	!	!	!	!	!	!
.	.	12b`\J	.	12dd`\J	.	.	.	.	.
4D\	.	4f/	.	8a/L	.	.	.	.	.
.	.	.	.	8b/J	.	.	.	.	.
=36	=36	=36	=36	=36	=36	=36	=36	=36	=36
4C/	.	4e/	.	4cc\	.	2.ryy	.	2.r	.
4C/	.	4c/	.	4c/	.	.	.	.	.
4r	.	4r	.	4r	.	.	.	.	.
!	!	!	!	!LO:LB:g=original	!	!	!	!	!
=37	=37	=37	=37	=37	=37	=37	=37	=37	=37
!	!	!	!LO:DY:a:t=Po	!	!	!	!	!	!
4C/	.	4e/	p	4cc\	.	2.ryy	.	2cc\	Chri-
4E/	.	4e/	.	4cc\	.	.	.	.	.
*	*	*	*	*	*	*	*	*Xtuplet	*
!	!	!	!	!	!	!	!	!	!
4C/	.	4e/	.	4cc\	.	.	.	12cc\L	.
.	.	.	.	.	.	.	.	12dd\	.
.	.	.	.	.	.	.	.	12ee\J	.
=38	=38	=38	=38	=38	=38	=38	=38	=38	=38
4G\	.	4b\	.	4dd\	.	2.ryy	.	2dd\	-ste
4B\	.	4b\	.	4dd\	.	.	.	.	.
4G\	.	4b\	.	4dd\	.	.	.	12dd\L	.
.	.	.	.	.	.	.	.	12ee\	.
.	.	.	.	.	.	.	.	12ff\J	.
=39	=39	=39	=39	=39	=39	=39	=39	=39	=39
4C/	.	4cc\	.	8ee\L	.	2.ryy	.	8ee\L	e-
.	.	.	.	8cc\J	.	.	.	8cc\J	.
4F\	.	4f/	.	4a/	.	.	.	4a\	-lei-
4D\	.	4f/	.	4b/	.	.	.	4b\	-i-
=40	=40	=40	=40	=40	=40	=40	=40	=40	=40
8C/L	.	4e/	.	8cc\L	.	2.ryy	.	2cc\	-son
8GG/J	.	.	.	8g\J	.	.	.	.	.
4CC/	.	4c/	.	4c/	.	.	.	.	.
4r	.	4r	.	4r	.	.	.	4r	.
!	!	!LO:LB:g=original	!	!	!	!	!	!LO:LB:g=original	!
=41	=41	=41	=41	=41	=41	=41	=41	=41	=41
!	!	!	!LO:DY:a:t=fo.	!	!	!	!	!LO:TX:a:t=4	!
2C/	.	8.ee\L	f	8.ee\L	.	2.ryy	.	2.r	.
.	.	16gg\K	.	16gg\K	.	.	.	.	.
.	.	8.ff#X\	.	8.ff#X\	.	.	.	.	.
.	.	16gg\Jk	.	16gg\Jk	.	.	.	.	.
4G\	.	4dd\	.	4dd\	.	.	.	.	.
=42	=42	=42	=42	=42	=42	=42	=42	=42	=42
2C/	.	8.ee\L	.	8.ee\L	.	2.ryy	.	2.r	.
.	.	16gg\K	.	16gg\K	.	.	.	.	.
.	.	8.ff#X\	.	8.ff#X\	.	.	.	.	.
.	.	16gg\Jk	.	16gg\Jk	.	.	.	.	.
4G\	.	4dd\	.	4dd\	.	.	.	.	.
=43	=43	=43	=43	=43	=43	=43	=43	=43	=43
!	!	!	!	!	!	!	!	!	!
4F\	.	12ff`\L	.	12aa`\L	.	2.ryy	.	2.r	.
!	!	!	!	!	!	!	!	!	!
.	.	12ee`\	.	12gg`\	.	.	.	.	.
!	!	!	!	!	!	!	!	!	!
.	.	12dd'\J	.	12ff`\J	.	.	.	.	.
!	!	!	!	!	!	!	!	!	!
4F\	.	12dd`\L	.	12ff`\L	.	.	.	.	.
!	!	!	!	!	!	!	!	!	!
.	.	12cc`\	.	12ee`\	.	.	.	.	.
!	!	!	!	!	!	!	!	!	!
.	.	12b`\J	.	12dd`\J	.	.	.	.	.
4D\	.	8f/L	.	8a/L	.	.	.	.	.
.	.	8f/J	.	8b/J	.	.	.	.	.
!LO:LB:g=original	!	!	!	!	!	!	!	!	!
=44	=44	=44	=44	=44	=44	=44	=44	=44	=44
4C/	.	4e/	.	4cc\	.	2.ryy	.	2.r	.
4C/	.	4c/	.	4c/	.	.	.	.	.
4r	.	4r	.	4r	.	.	.	.	.
=45	=45	=45	=45	=45	=45	=45	=45	=45	=45
!	!	!	!LO:DY:a:t=Po.	!	!LO:DY:a:t=P.	!	!	!	!
4C/	.	4e/	p	4cc\	p	2.ryy	.	2cc\	Chri-
4E/	.	4e/	.	4cc\	.	.	.	.	.
4C/	.	4e/	.	4cc\	.	.	.	12cc\L	.
.	.	.	.	.	.	.	.	12dd\	.
.	.	.	.	.	.	.	.	12ee\J	.
!	!	!	!	!LO:LB:g=original	!	!	!	!	!
=46	=46	=46	=46	=46	=46	=46	=46	=46	=46
4GG/	.	4b\	.	4dd\	.	2.ryy	.	2dd\	-ste
4BB/	.	4b\	.	4dd\	.	.	.	.	.
4GG/	.	4b\	.	4dd\	.	.	.	12dd\L	.
.	.	.	.	.	.	.	.	12ee\	.
.	.	.	.	.	.	.	.	12ff\J	.
=47	=47	=47	=47	=47	=47	=47	=47	=47	=47
4C/	.	4e/	.	4cc\	.	2.ryy	.	8ee\L	e-
.	.	.	.	.	.	.	.	8cc\J	.
4F\	.	4e/	.	4cc\	.	.	.	4a\	-lei-
4D\	.	4f/	.	4b\	.	.	.	4b\	-i-
=48	=48	=48	=48	=48	=48	=48	=48	=48	=48
!	!	!	!LO:DY:a:t=for.	!	!	!	!	!	!
2.C/	.	8.ee\L	f	8.ee\L	.	2.ryy	.	2cc\	-son
.	.	16gg\K	.	16gg\K	.	.	.	.	.
.	.	8.ff#X\	.	8.ff#X\	.	.	.	.	.
.	.	16gg\Jk	.	16gg\Jk	.	.	.	.	.
.	.	4dd\	.	4dd\	.	.	.	4r	.
!	!	!LO:LB:g=original	!	!	!	!	!	!	!
=49	=49	=49	=49	=49	=49	=49	=49	=49	=49
4C/	.	4e/	.	4cc\	.	2.ryy	.	4cc\	e-
4C/	.	4r	.	4r	.	.	.	4ee\	.
4r	.	4r	.	4r	.	.	.	4ff#X\	.
=50	=50	=50	=50	=50	=50	=50	=50	=50	=50
2.C/	.	4cc\	.	4ee\	.	2.ryy	.	2gg\	.
.	.	4cc\	.	4ee\	.	.	.	.	.
.	.	4cc\	.	4ee\	.	.	.	8ee\L	.
.	.	.	.	.	.	.	.	8cc\J	.
=51	=51	=51	=51	=51	=51	=51	=51	=51	=51
2.C/	.	4cc\	.	4ee\	.	2.ryy	.	2gg\	.
.	.	4cc\	.	4ee\	.	.	.	.	.
.	.	4cc\	.	4ee\	.	.	.	8ee\L	.
.	.	.	.	.	.	.	.	8cc\J	.
=52	=52	=52	=52	=52	=52	=52	=52	=52	=52
4G\	.	4b\	.	4dd\	.	2.ryy	.	2dd\	.
4G\	.	4r	.	4r	.	.	.	.	.
4G\	.	4r	.	4r	.	.	.	8ee\L	.
.	.	.	.	.	.	.	.	8ffn\J	.
!	!	!	!	!	!	!	!	!LO:LB:g=original	!
=53	=53	=53	=53	=53	=53	=53	=53	=53	=53
!	!	!	!	!LO:TX:a:t=5	!	!	!	!	!
4B\	.	2.r	.	2.r	.	2.ryy	.	4ff\	.
4B\	.	.	.	.	.	.	.	4dd\	.
4B\	.	.	.	.	.	.	.	4b\	.
=54	=54	=54	=54	=54	=54	=54	=54	=54	=54
4A\	.	2.r	.	2.r	.	2.ryy	.	2cc\	.
4A\	.	.	.	.	.	.	.	.	.
4A\	.	.	.	.	.	.	.	8dd\L	.
.	.	.	.	.	.	.	.	8ee\J	.
=55	=55	=55	=55	=55	=55	=55	=55	=55	=55
4F\	.	2.r	.	2.r	.	2.ryy	.	4ee\	.
4F\	.	.	.	.	.	.	.	4cc\	.
4F\	.	.	.	.	.	.	.	4a\	.
!LO:LB:g=original	!	!	!	!	!	!	!	!	!
=56	=56	=56	=56	=56	=56	=56	=56	=56	=56
4G\	.	2.r	.	2.r	.	2.ryy	.	2b\	.
4G\	.	.	.	.	.	.	.	.	.
4G\	.	.	.	.	.	.	.	8cc\L	.
.	.	.	.	.	.	.	.	8dd\J	.
=57	=57	=57	=57	=57	=57	=57	=57	=57	=57
4G\	.	2.r	.	2.r	.	2.ryy	.	4dd\	.
4G\	.	.	.	.	.	.	.	4b\	.
4G\	.	.	.	.	.	.	.	4g\	.
=58	=58	=58	=58	=58	=58	=58	=58	=58	=58
4C/	.	4e/	.	4cc\	.	2.ryy	.	2cc\	.
4E/	.	4r	.	4r	.	.	.	.	.
4C/	.	4r	.	4r	.	.	.	8dd\L	.
.	.	.	.	.	.	.	.	8ee\J	.
=59	=59	=59	=59	=59	=59	=59	=59	=59	=59
4G\	.	4e/	.	4dd\	.	2.ryy	.	2dd\	.
4B\	.	4r	.	4r	.	.	.	.	.
4G\	.	4r	.	4r	.	.	.	8b\L	.
.	.	.	.	.	.	.	.	8g\J	.
=60	=60	=60	=60	=60	=60	=60	=60	=60	=60
4C/	.	4e/	.	4cc\	.	2.ryy	.	2cc\	.
4E/	.	4r	.	4r	.	.	.	.	.
4C/	.	4r	.	4r	.	.	.	8dd\L	.
.	.	.	.	.	.	.	.	8ee\J	.
!	!	!	!	!LO:LB:g=original	!	!	!	!	!
=61	=61	=61	=61	=61	=61	=61	=61	=61	=61
4G\	.	4b\	.	4dd\	.	2.ryy	.	2dd\	.
4B\	.	4r	.	4r	.	.	.	.	.
4G\	.	4r	.	4r	.	.	.	8b\L	.
.	.	.	.	.	.	.	.	8g\J	.
=62	=62	=62	=62	=62	=62	=62	=62	=62	=62
4C/	.	2.r	.	2.r	.	2.ryy	.	4cc\	-e-
4D/	4	.	.	.	.	.	.	4b\	-le-
4DD/	#	.	.	.	.	.	.	4a\	-i-
!	!	!	!	!	!	!	!	!LO:LB:g=original	!
=63	=63	=63	=63	=63	=63	=63	=63	=63	=63
2GG/	.	2.r	.	2.r	.	2.ryy	.	2g\	-son
4r	.	.	.	.	.	.	.	4r	.
=64	=64	=64	=64	=64	=64	=64	=64	=64	=64
4G\	.	2g/	.	2g/	.	2.ryy	.	2.r	.
4B\	.	.	.	.	.	.	.	.	.
4G\	.	12g/L	.	12g/L	.	.	.	.	.
.	.	12a/	.	12a/	.	.	.	.	.
.	.	12b/J	.	12b/J	.	.	.	.	.
=65	=65	=65	=65	=65	=65	=65	=65	=65	=65
4D\	.	2f#X/	.	2a/	.	2.ryy	.	2.r	.
4F#X\	.	.	.	.	.	.	.	.	.
4D\	.	12f#/L	.	12a/L	.	.	.	.	.
.	.	12g/	.	12b/	.	.	.	.	.
.	.	12a/J	.	12cc/J	.	.	.	.	.
!LO:LB:g=original	!	!	!	!	!	!	!	!	!
=66	=66	=66	=66	=66	=66	=66	=66	=66	=66
4G\	.	4g/	.	8b/L	.	2.ryy	.	2.r	.
.	.	.	.	8g/J	.	.	.	.	.
4C/	.	4e/	.	4e/	.	.	.	.	.
!	!	!	!	!LO:SIC:s=4f#	!	!	!	!	!
4D\	.	4f#X/	.	4f/	.	.	.	.	.
=67	=67	=67	=67	=67	=67	=67	=67	=67	=67
4GG/	.	4g/	.	4g/	.	2.ryy	.	2.r	.
4r	.	12d/L	.	8d/L	.	.	.	.	.
.	.	12c/	.	.	.	.	.	.	.
.	.	.	.	16c/L	.	.	.	.	.
.	.	12B/J	.	.	.	.	.	.	.
.	.	.	.	16B/JJ	.	.	.	.	.
4r	.	12B/L	.	8B/L	.	.	.	.	.
.	.	12A/	.	.	.	.	.	.	.
.	.	.	.	16A/L	.	.	.	.	.
.	.	12G/J	.	.	.	.	.	.	.
.	.	.	.	16G/JJ	.	.	.	.	.
=68	=68	=68	=68	=68	=68	=68	=68	=68	=68
4G\	.	4g/	.	4b\	.	2.ryy	.	2g\	Chri-
4B\	.	4g/	.	4b\	.	.	.	.	.
4G\	.	4g/	.	4b\	.	.	.	12g\L	.
.	.	.	.	.	.	.	.	12a\	.
.	.	.	.	.	.	.	.	12b\J	.
=69	=69	=69	=69	=69	=69	=69	=69	=69	=69
4D\	.	4f#X/	.	4a/	.	2.ryy	.	2a\	-ste
4F#X\	.	4f#/	.	4a/	.	.	.	.	.
4G\	.	4f#/	.	4a/	.	.	.	12a\L	.
.	.	.	.	.	.	.	.	12b\	.
.	.	.	.	.	.	.	.	12cc\J	.
=70	=70	=70	=70	=70	=70	=70	=70	=70	=70
4C/	6	4a/	.	4cc\	.	2.ryy	.	4cc\	.
4r	.	4g/	.	4b\	.	.	.	4b\	le-
4D\	#	4f#X/	.	4a/	.	.	.	4a\	-i-
=71	=71	=71	=71	=71	=71	=71	=71	=71	=71
4G\	.	2g/	.	2b\	.	2.ryy	.	2g\	-son
4GG/	.	.	.	.	.	.	.	.	.
4r	.	8b\L	.	8dd\L	.	.	.	4r	.
.	.	8g\J	.	8b\J	.	.	.	.	.
!	!	!	!	!LO:LB:g=original	!	!	!	!	!
=72	=72	=72	=72	=72	=72	=72	=72	=72	=72
4G\	.	4g/	.	4b\	.	2.ryy	.	2g\	e-
4B\	.	4g/	.	4b\	.	.	.	.	.
4G\	.	4g/	.	4b\	.	.	.	12g\L	.
.	.	.	.	.	.	.	.	12a\	.
.	.	.	.	.	.	.	.	12b\J	.
=73	=73	=73	=73	=73	=73	=73	=73	=73	=73
4D\	.	4f#X/	.	4a/	.	2.ryy	.	2a\	.
4F#X\	.	4f#/	.	4a/	.	.	.	.	.
4D\	.	4f#/	.	4a/	.	.	.	12a\L	.
.	.	.	.	.	.	.	.	12b\	.
.	.	.	.	.	.	.	.	12cc\J	.
!	!	!LO:LB:g=original	!	!	!	!	!	!	!
=74	=74	=74	=74	=74	=74	=74	=74	=74	=74
4C/	.	4a/	.	4cc/	.	2.ryy	.	4cc\	.
4D/	4	4g/	.	4b/	.	.	.	4b\	-le-
4DD/	#	4f#X/	.	4a/	.	.	.	4a\	-i-
!LO:LB:g=original	!	!	!	!	!	!	!	!	!
=75	=75	=75	=75	=75	=75	=75	=75	=75	=75
2GG/	.	4g/	.	4g/	.	2.ryy	.	2g\	-son
.	.	4G/	.	4G/	.	.	.	.	.
4r	.	4r	.	4r	.	.	.	4r	.
!	!	!	!	!	!	!	!	!LO:LB:g=original	!
=76	=76	=76	=76	=76	=76	=76	=76	=76	=76
2.G\	.	2.r	.	2.r	.	2.ryy	.	4g\	e-
.	.	.	.	.	.	.	.	4b\	.
.	.	.	.	.	.	.	.	4dd\	.
=77	=77	=77	=77	=77	=77	=77	=77	=77	=77
2.D\	#	2.r	.	2.r	.	2.ryy	.	4cc\	.
.	.	.	.	.	.	.	.	2a\	.
=78	=78	=78	=78	=78	=78	=78	=78	=78	=78
2.G\	.	2.r	.	2.r	.	2.ryy	.	4g\	.
.	.	.	.	.	.	.	.	4b\	.
.	.	.	.	.	.	.	.	4dd\	.
=79	=79	=79	=79	=79	=79	=79	=79	=79	=79
2.D\	#	2.r	.	2.r	.	2.ryy	.	4cc\	.
.	.	.	.	.	.	.	.	2a\	.
=80	=80	=80	=80	=80	=80	=80	=80	=80	=80
4C/	6	2.r	.	2.r	.	2.ryy	.	4cc\	.
4r	.	.	.	.	.	.	.	4b\	-le-
4D\	#	.	.	.	.	.	.	4a\	-i-
=81	=81	=81	=81	=81	=81	=81	=81	=81	=81
4G\	.	2.r	.	2.r	.	2.ryy	.	2g\	-son
8G\L	.	.	.	.	.	.	.	.	.
8F\	.	.	.	.	.	.	.	.	.
8E\	.	.	.	.	.	.	.	4r	.
8D\J	.	.	.	.	.	.	.	.	.
=82	=82	=82	=82	=82	=82	=82	=82	=82	=82
4C/	.	4cc\	.	4ee\	.	2.ryy	.	2cc\	Chri-
4E/	.	4cc\	.	4ee\	.	.	.	.	.
4C/	.	4cc\	.	4ee\	.	.	.	12cc\L	.
.	.	.	.	.	.	.	.	12dd\	.
.	.	.	.	.	.	.	.	12ee\J	.
=83	=83	=83	=83	=83	=83	=83	=83	=83	=83
4G\	.	4b\	.	4dd\	.	2.ryy	.	2dd\	-ste
4B\	.	4b\	.	4dd\	.	.	.	.	.
4G\	.	4b\	.	4dd\	.	.	.	12dd\L	.
.	.	.	.	.	.	.	.	12ee\	.
.	.	.	.	.	.	.	.	12ff\J	.
=84	=84	=84	=84	=84	=84	=84	=84	=84	=84
4C\	.	4cc\	.	4ee\	.	2.ryy	.	8ee\L	e-
.	.	.	.	.	.	.	.	8cc\J	.
4F\	.	4r	.	4r	.	.	.	4a\	-lei-
4D\	6	4r	.	4r	.	.	.	4b\	-i-
=85	=85	=85	=85	=85	=85	=85	=85	=85	=85
2.C/	.	4cc\	.	4ee\	.	2.ryy	.	4cc\	-son
.	.	4cc\	.	4ee\	.	.	.	8ee\L	e-
.	.	.	.	.	.	.	.	8cc\J	.
.	.	4cc\	.	4dd\	.	.	.	8ff\L	.
.	.	.	.	.	.	.	.	8dd\J	.
!LO:LB:g=original	!	!	!	!	!	!	!	!LO:LB:g=original	!
=86	=86	=86	=86	=86	=86	=86	=86	=86	=86
2.C/	.	4cc\	.	4ee\	.	2.ryy	.	4cc\	.
.	.	4cc\	.	4ee\	.	.	.	8ee\L	.
.	.	.	.	.	.	.	.	8cc\J	.
.	.	4b\	.	4dd\	.	.	.	8ff\L	.
.	.	.	.	.	.	.	.	8dd\J	.
=87	=87	=87	=87	=87	=87	=87	=87	=87	=87
4C/	.	4cc\	.	4ee\	.	2.ryy	.	8ee\L	.
.	.	.	.	.	.	.	.	8cc\J	.
4F\	.	4r	.	4r	.	.	.	4a\	-le-
4D\	6	4r	.	4r	.	.	.	4b\	-i-
=88	=88	=88	=88	=88	=88	=88	=88	=88	=88
4C/	.	4cc\	.	4cc\	.	2.ryy	.	2cc\	-son
4CC/	.	4g/	.	4g/	.	.	.	.	.
4r	.	4c/	.	4c/	.	.	.	4r	.
!	!	!	!	!LO:LB:g=original	!	!	!	!	!
=89	=89	=89	=89	=89	=89	=89	=89	=89	=89
!	!	!	!	!	!LO:DY:a:t=fr.	!	!	!	!
4C/	.	2cc\	.	2cc\	f	2.ryy	.	2.r	.
4E/	.	.	.	.	.	.	.	.	.
4C/	.	4cc\	.	4ee\	.	.	.	.	.
=90	=90	=90	=90	=90	=90	=90	=90	=90	=90
*	*	*tuplet	*	*tuplet	*	*	*	*	*
!	!	!LO:TX:t=P:problem=klamra łukowa, kropka zamiast numeru	!	!	!	!	!	!	!
2.G\	.	12dd\L	.	12ff\L	.	2.ryy	.	2.r	.
.	.	12cc\	.	12ee\	.	.	.	.	.
.	.	12dd\J	.	12ff\J	.	.	.	.	.
.	.	2b\	.	2dd\	.	.	.	.	.
=91	=91	=91	=91	=91	=91	=91	=91	=91	=91
4C/	.	4cc\	.	8cc\L	.	2.ryy	.	2.r	.
.	.	.	.	8ee\J	.	.	.	.	.
4E/	.	4cc\	.	2ee\	.	.	.	.	.
4C/	.	4cc\	.	.	.	.	.	.	.
=92	=92	=92	=92	=92	=92	=92	=92	=92	=92
!	!	!	!	!	!	!	!	!	!
2.G\	.	12dd\L	.	12ff\L	.	2.ryy	.	2.r	.
.	.	12cc\	.	12ee\	.	.	.	.	.
.	.	12dd\J	.	12ff\J	.	.	.	.	.
.	.	2b\	.	2dd\	.	.	.	.	.
*	*	*Xtuplet	*	*Xtuplet	*	*	*	*	*
=93	=93	=93	=93	=93	=93	=93	=93	=93	=93
!	!	!	!	!	!	!	!	!	!
4F\	.	12ff`\L	.	12aa`\L	.	2.ryy	.	2.r	.
!	!	!	!	!	!	!	!	!	!
.	.	12ee`\	.	12gg`\	.	.	.	.	.
!	!	!	!	!	!	!	!	!	!
.	.	12dd`\J	.	12ff`\J	.	.	.	.	.
!	!	!	!	!	!	!	!	!	!
4r	.	12dd`\L	.	12ff`\L	.	.	.	.	.
!	!	!	!	!	!	!	!	!	!
.	.	12cc`\	.	12ee`\	.	.	.	.	.
!	!	!	!	!	!	!	!	!	!
.	.	12b`\J	.	12dd`\J	.	.	.	.	.
4D\	.	8f/L	.	8a/L	.	.	.	.	.
.	.	8f/J	.	8b/J	.	.	.	.	.
=94	=94	=94	=94	=94	=94	=94	=94	=94	=94
!	!	!	!	!	!	!LO:TX:b:t=Kyrie Da Capo.	!	!LO:TX:b:t=Kyrie Da Capo allo.	!
4C/	.	4e/	.	4cc\	.	2.ryy	.	2.r	.
4CC/	.	4c/	.	4c/	.	.	.	.	.
!	!	!LO:TX:b:t=Kyrie Da Capo Allo.	!	!LO:TX:b:t=Kyrie Da Capo\nallo.	!	!	!	!	!
!LO:TX:a:t=70	!	!LO:TX:a:t=70	!	!LO:TX:a:t=70	!	!	!	!	!
4r	.	4r	.	4r	.	.	.	.	.
==	==	==	==	==	==	==	==	==	==
*-	*-	*-	*-	*-	*-	*-	*-	*-	*-
!!!system-decoration: [(s1,s2)][(s3,s4)]s5
!!!RDF**kern: > = above
!!!RDF**kern: < = below
!!!ENC: Andrzej Kubiczek
!!!END: 2020-12-13
!!!ENC: Natalia Wrzos
!!!END: 2022-03-24
